public/images/icon-file.svg

<svg viewBox="0 0 79.9 99.2" xmlns="http://www.w3.org/2000/svg"><path d="m55 0h-48.2a6.89 6.89 0 0 0 -6.8 6.8v85.6a6.89 6.89 0 0 0 6.8 6.8h66.3a6.89 6.89 0 0 0 6.8-6.8v-67.35zm16.9 91.2h-63.9v-83.2h43.61v15.25a4.91 4.91 0 0 0 4.93 4.93h15.19l.17.17z" fill="#888"/></svg>

<svg id="Layer_1" data-name="Layer 1" xmlns="http://www.w3.org/2000/svg" viewBox="0 0 79.9 99.2"><defs><style>.cls-1{fill:#888;}</style></defs><title>icon-file</title><path class="cls-1" d="M55,0H6.8A6.89,6.89,0,0,0,0,6.8V92.4a6.89,6.89,0,0,0,6.8,6.8H73.1a6.89,6.89,0,0,0,6.8-6.8V25.05ZM71.9,91.2H8V8H51.61V23.25a4.91,4.91,0,0,0,4.93,4.93H71.73l.17.17Z"/></svg>
